X:1
T:Suite III
T:Sylvius Leopold Weiss (1686-1750) Transcription by David Manzanares Viles 
T:PRELUDE
T:Suite III
T:Original key signature G minor
T:© Public domain
T:© Public domain
T:© Public domain
T:© Public domain
T:© Public domain
T:© Public domain
T:© Public domain
T:© Public domain
T:© Public domain
T:© Public domain
T:© Public domain
C:Sylvius Leopold Weiss (1686-1750)
Z:© Public domain
%%score ( 1 2 3 4 )
L:1/8
Q:1/4=120
M:none
K:C
V:1 treble-8 nm="Guitarra clàssica" snm="Guit."
V:2 treble-8 
V:3 treble-8 
V:4 treble-8 
V:1
!mp! z E E A A c c"^0" e | e a a c' c' a a e | e c c A A f [^Gdf]4 | z ^G G d d f f b | %4
 b f f e e d d c | c B"^V" [Acea]4 x |"^II" z AA^c ceea aeec |"^I" z AAd dffa affd | %8
 z _BB^c ceeg g_bbd cbag | z ddf fad=c | z GG!courtesy!=B Bddg gfed | z cc"^0"e e"^3""^2"gg"^4"c' | %12
"^C7" z d^fc'"^V" z deb |"^V" z ea!courtesy!=g fadf |"^V""^4""_2" g"^3"dg"^4"f"^4""^III" egce | %15
 fcf"^0"e dfBA | ^GBed (cB)A=G AGFE | z"^C3" FF_B Bddf fdBA |"_0" [E^G]4"^loco" [^FA]4 | %19
 [CEA]4 [B,E^G]4 | z A A c c e e a | a e e c c A | [CEA]4 |]: %23
[M:4/4]"^\n\n\nALLEMANDE"[Q:1/4=63] a | [cea]2 AB cdea |{a} [Be^g]2 E^F ^GAB"^2"g | %26
"^C5" ab (c'/b/)a/b/{b} c'b a2 |"^II" A/a/"^0"B/a/ c/a/A/a/ g>^f{f} g2 | %28
"^0" G/"^4"g/A/g/ _B/g/G/g/ f>e{e} f2 | D/f/E/f/ F/f/D/f/{f} e>d e2 | %30
 F,/A/G,/B/ A,/c/F,/a/ PB>A{A} G2 | c"^2"_B/"^1"A/"_4"{A} B>B B{A}G{G} A2 | %32
"^III""^8" d"^0"{c}=B c"^0"{c}B/A/ B3 d | g{f}e f{f}e/d/ e3"^2""^3" g | %34
"^4" c'g/f/"^0"{f} ed/c/ (ag) (gf) | (fe) (ed) (dc) (cB) | B2 cf"^C3" Pd3 c/d/ | cf Be Ad Gc | %38
 z/ D/B/{A}G/ [EGc]A PB3 c | [EGc]EFG AE{E}FG | [EGc]6 z :: c | [EGc]2 CD EFGc |{c} B2 GA Bcdg | %44
{f} e2"^1""^3" cd efgc' |"^C5"{c'} b2 ga b"^4"c'"^4"d'"^V"f |"^V"{f} e2 c'2 z b c'2 | %47
{b} a2"^VII" d'2 z c' d'2 |{c'} b2"^IX" e'2 z d' e'2 |{d'} c'2"^4" b2"^3""^V"{b} a2 !courtesy!=g2 | %50
{g} ^f2{f} e2{e} ^d2 e2 |"^VII"{e} [^d^f]2 B^c defb |{b} [^da]2 B^c de^fa |{a} [eg]2 B^c ^de^fg | %54
"^VII" ^fb ba ag"^V" g=f | fe ed d^c cd | e2 AB ^cdea |{a} [^cg]2 AB cdeg |{g} [df]2 AB ^cdef | %59
 e2 ^ca da eg | [^cg]2 [df]2 [de]2 [=ce]2 | [c^f]2 [_Bg]2 [Ag]2 [Af]2 | [G^f]2 [Ge]2 [^Fe]2 [Fd]2 | %63
 [Ed]2 [Ec]2 c2 BA |{A} [E^G]2 E^F GAB^g | [cea]2 E^F ^GA B^g/a/ | [deb]2 E^F ^GA B/^g/a/b/ | %67
"^V" c'bba a/^g/^f/e/ ad |{d} c3 B A/a/B/a/ c/a/A/a/ |"_8" g>^f{f} g2 G/g/A/g/ _B/g/G/g/ | %70
 f>e{e} f2"_3""^C3" F_Bdf | A/^G/^F/E/ [EA][AB] PB3 A/B/ | Ae^f^g ac{c}de | [CEA]6 z :: %74
[M:3/4]"^COURANTE \n\n\n"[Q:1/4=144] EA^G |{^G} A2 EAcB |{B} c2 Aced | e2 (dc)BA | %78
{A} ^GBE"^0"e"^3"a"^2"^g |"_1""^V"{^g} a2 z ^ca!courtesy!=g |{g} f"^0"eddg^f |{^f} g2 z Bg=f | %82
{f} edc"^3"g"^4"c'"^3"b |"_2"{b} c'2 c"^C.5"e!4!c'"^1"b |"^1""^4""^2""_2"{b} a2 !1!f!2!a"^4"d'^c' | %85
"^3""^4"{^c'} d'2"^2" d"^3"f"^4"d'"^2"!courtesy!=c' |"_0"{c'} b2 b"^VII""^2"g"^3"c'b | %87
"^4""^2"{b} a2 a"^1""^3"c"^2""^2"f"^0"e |"^VII"{e} d2 d^fba |"^4""^2""^2"{a} g2 gB"^loco"ed | %90
{d} c2 ce"^4""_1"a"^2"g |{g} f2 fAdc |{c} B2 Bdgf |{f} e2 eGcB | Agfedc |{c} B2 Gdg^f | %96
{^f} g2 Gd=fe |{e} [df]2 Gced | e2 Ge(dc) |{c} B2 Ggc'b |{b} c'2"^C5" cec'b |"^C3" (ag)f!0!edc | %102
"^I" BAGFED | z c z DcB | c2 z cEc | [EGc]3 :: GcB |{B} c2 Gced |{d} e2 cegf |{f} g2 fedc | %110
 BdGAd^c |{^c} d2 Adfe |{e} [Af]2 dfag |"^III" [da]2 gf"^1""^0"{f}ed | ^ceA"^0"e"^3"a"^1"g | %115
"^4""^2" f"^0"e"^VII"dad'"^2"c' |"^V" (!2!_ba)gdgf |"^C3" (ed)c"^3"g"^4"c'"^2"_b | %118
"^3""^C3" (ag)fcf"^0"e |"^C6" df_Bf_b"^4""^2"a |"^2" g"^2"f"^1"e"^0"!courtesy!=Bed | %121
"^II" (^cB)Aeag | (fe)dAd!courtesy!=c | (_BA)Gdgf |{f} e2 dc [cf]2 |"^C3" f(_bg)f e2 | %126
"^0" e"^4"a"^C1"f"^0"e d2 |"^V" dbed"^I" c2 | [AB]2 P^G2 ed |{d} cBAeag |{e} [c^f]2 Acfe | %131
"^II" ^d^cB"^3""^2"^f"^4"b!1!a |{a} [^fb]2"^0" Bf!4!ba |{!3!a} !1!g2 !0!e"^3""^2"b"^4"e'"^2"^d' | %134
 [^ge']2"^C9" ege'"^2"!courtesy!=d' |"^2" (c'b)c'!0!ea^g | %136
"^2""^3""_1"{^g} a2"_0" z"^V" ^c a!courtesy!=g | f"^0"e"^VII"dad'^c' | d'fad'ba | ^gb"^0"eBed | %140
 ceAe"^3"a"^1"!courtesy!=g |"^1" fedcBA | ^GBEd{d}cB | ceEc{c}BA | BdEd{d}cB | ceAedc | fedcBA | %147
 ^G^FEDCB, | z"^2" a z Ba"^1"{a}^g |{^g} a2"^C5" z aAa | [cea]3 :: %151
[M:2/2]"^BOURRÉE\n\n"[Q:1/2=88]"^0" e2 |"^2" (a"^1"^g)a"^0"e"_1""^4" (b"^2"a)b"^0"e | %153
"^V" c'2 (bc') a2 [eb]2 |"^VII""_1""^4" (c'"^2"b)c'"^0"e"_1""^4" (d'"^1"c')d'e | %155
"_1" e'"^0"e"^2""^2"^g"^0"e z e!4!e'!2!d' |"^2" ^c'"^4"e'c'"^1"g"^V" ^ceag | %157
{g} f2 ef"^3""^3" d"^3"fd'!courtesy!=c' |"^VII" bd'b!1!f"^4""^2" gd"^4"g"^4"f | %159
"^C3"{f} e2 de{d} c2"_1""^3" g2 |"^C3" (ag)f"^0"e"_1""^4" (a"^2"g)"^4""^2"f"^0"e | (ag)fe defd | %162
 (gf)ed (gf)ed | (gf)ed cdec | (fe)dc (fe)dc | (fe)dc Bgfg |{f} Te2{d} c2 a2 b2 | c'2 ef g2 df | %168
{f} Te2{d} c2 a2 b2 | c'2 ef g2 df |{f} Te2{d} [Gc]2 [Ad]2 [GB]2 | [Gc]4 [Gc]2 :: G2 | %173
 (cB)cG (dc)dG | e2 de c2 [Gd]2 |"^4""_1""^2" (e"^2"d)e"_0"G"^1" (f"^0"e)fG | gfed c2 g2 | %177
"^C3" a(ef)a f(de)f |{c} B2 AB{A} G2 FG | [Gc]4 d2 (gf) | e2 d"^0"e"^C5" (fg)af | %181
"^C3" d2 ef (ef)ge |"^C2"{d} [A^c]2 !courtesy!=BA"^C3" afed | %183
"_0""^4" (_ba)g"^4""^1"f ged!courtesy!=c |"^C3" (ag)f"^0"e fdc"^3"_B | %185
"^4" (gf)ed"_3""^0" e^c!courtesy!=BA | [Af]6 [Ae]2 | [Af]6 [ea]2 | f2 ed e4 | d2 de f2 [df]2 | %190
 (fe)dc (fe)dc | (fe)dc Bgfg | (ed)cB (ed)cB | (ed)cB Afef | (dc)BA (dc)BA | %195
"^2" (d"^4""_3"c)"^0"BA ^GBed | (cB)cA ^c4 | (d^c)dA e3 e | (fe)"^1"fd"^2" ^f3"_3" f | %199
"^4""_1" (g"^2"^f)gd ^g3 g |"_1""^3" (a"^2"^g)a"^0"e"^4""_1" (b"^2"a)be | %201
 [ec']2"^1""^4""^2"{b} a2 b2"^3""_1""^2" ^g2 |"^4""^2" a4 [cea]2 :: %203
[M:3/4]"^\n\nSARABANDE"[Q:1/4=48]"^C5" a2 aa{a}bc' |{c'} b4- b"^4"b | %205
"^4""_2" a2 a"^3"^g"_1"a"^4"b | P^g6 | a2 z/ (a/!courtesy!=g/)a/ z/ (a/g/)a/ | Pf2 dfef | %209
 g2 z/ (g/f/)g/ z/ (g/f/)g/ | Pe2 c"^1" !slide!g!1!a"^4"b | %211
"^4""^2""_1" c'2"^V" z/ (c'/b/)c'/ z/ (c'/b/)c'/ |"^C8" a/b/-(3b/(a/b/) c'a fa | %213
 d/e/-(3e/d/e/ fdBd | PG3 A/B/ cd/e/ | dc"^III" g/a/g/f/ e/f/e/d/ |1 %216
{d} [Gc]2 z/ E/^F/^G/ (7:4:7A/B/c/d/e/^f/^g/ :|2{d} [Gc]2 z/ E/F/G/ (6:4:6A/B/c/d/e/f/ |: %218
"^C3" g2 ef dc |"^I" g3"^1" g"^3" !slide!a"^3"b |"^V" c'(b/a/) a(g/^f/) f/e/d/c'/ | %221
{c'} Tb3 a/b/{a} ga/b/ | c'2 Pa3 g/a/ |{a} b2 ag ^fe |{g} a2"^C2" P^f3 e/f/ |{^f} g2{f} e2 e'2 | %226
"^C7" g3 a ^f2 |"_2""_6""^3""^3" e2"^2" ab"^C7" Pb2 |"^V" c'a ^f2"^4""^2""_1" b2 |"^C7" g3 a ^f2 | %230
"^0" e2"^3" ^g3 g | !3!a6 |"^V" f2 d2"^4" d'2 |"^2" !slide!b!2!c' Pc'3"^4" d' | %234
"^3""^2""^2"{a} ^g2"^0" e2"^4" e'2 | [!courtesy!=ge']2"^3""^1" Pf3"^0" e | f2 df ad' | %237
 bc'{d'} Tc'3 d' |"^4""^3"{a} ^g2 !1!^f"^0"e"^4""^3""_1" [be']2 | %239
"^1""^2" c'2"^4""_0" d'!2!c'"^C7" bc' |"^4""_1""^2" a2"^3""^2""^3" P^d3 b | %241
"^C7"{a} ^g2 ^f"^0"e a2 | c2 ed cd/B/ |"^C2"{B} A6 :: %244
[M:3/4]S"^MENUET I\n"[Q:1/4=120]!mf! (a^g)aede |{d} c2 Bc A2 | %246
"^2" (c'"^1"b)c'"^3""^2"^g"^4""_2"ab |"^C7"{a} ^g2 ^fg !0!e2 |"^loco" (a^g)aede | ^ceagfe | %250
 (fg)(ef) d2 | (g^f)gdcd |"^C3" Bdgfed | (ef)(de) c2 |"^C7" (c'b)c'gfg | %255
"_1""^4""^2" (a"_5""^2"g)a"^1""^1"b"^2" c'2 | (c'b)c'gfg | agafd'c' | babge'd' | %259
"^C7" (c'b)c'"^4"!slide!d'"^4"e'"^2""^2"g |"_1""^4""^2" (a"^2"g)a"^2""^1"b"^4""_1"c'"^0"e | %261
"^loco" (fe)fgac |{c} B2 AG [dg]2 | g2 fe f2 | f2 ed e2 | d2 cB c2 | de G2{A} B2 |{B} c4 [EGc]2 :: %268
 (cd)ef g2 | g2 (fe)dc | (cd)ef g2 |{c} TB2 AB G2 |"^V" defg a2 | !1!a2 gf!0!ed |"^III" defg a2 | %275
{d} T^c2 Bc A2 |"^C7" e^fga b2 | bag^f e2 | e^fga b2 |"^C2"{e} ^d2 ^cd B2 |"^V" [ec']2 Pa3 g/a/ | %281
 b2 ag^f"^0"e |"^4""_2" a2"^C2" P^f3 e/f/ | g4 a2 | g2 ^f2 g2 | ^f2 e2 f2 |{e} ^d2 [gb]2 [^fa]2 | %287
"^II"{^f} g2 (ag)fg | e2 b2{e} ^d2 | e6 | (a^g)aede | ^cea!courtesy!=gfe | (fg)(ef) d2 | %293
 (g^f)gdcd | Bdgfed | (ef)de c2 |"^V" [ec']2{c'} b2"_1""^2" a"^4"b |"^2""^1"{a} ^g2 (ab)"^0" e2 | %298
"^4" (e'"^3"^d')e'"^1""^2"^g"^0"ee' |"^2" (d'"^1"^c')d'^ge!2!d' |"^VII" (!2!c'b)c'eac' | %301
"^C7"{c'} b2 a^g a2 |"_0""^1" b2"^4""^0" e2{a} !3!^g2 | a4 !breath![cea]2!fine! :: %304
[M:3/4]"^C3"!mp!"^MENUET II" [eg]2 (fe) dc | [ca]4"_2" !1!!4![cg]2 |"^C3" _b2 a2 g2 | a2 gf!0!ed | %308
 PB4 c2 | [cf]2 ed e2 |{g} a2 gf{f} g2 | Pf4 [ce]2 | a2 gf{f} g2 | f2 ed e2 | %314
 d2 cB"_0""^3""^3"c"^1"d | PB3 c/d/ G2 ::"^C3" g2 (fe)fg |"^C2" P^c4 [Ad]2 | g2 Pe2 a2 | %319
{g} f2 ef d2 | _b2 agfe | P^c4 _b2 |"^C5" _b2 agfe |"^C3" e2 a2 d2 | [dg]2 fed^c | d2 f2 A2 | %326
"^C3" g2 fe fd |{d} ^c2 !courtesy!=BA [Ad]2 | [dg]2 Pe4 | e4 f2 |{g} [df]2 ed g2 | Pe4 d2 | %332
 c2 fe da | PB3 c/d/ G2 | g2 fedc | _b2 a2 g2 |"^C3" agfe"^3"d"^0"e | [Gc]4 [Gc]2!D.S.! :| %338
V:2
 A,8 | x8 | x6 A,4 | A,8 | x8 | x2 A,4 x | G,12 | F,12 | E,16 | D8 | G,12 | C8 | ^F4 ^G4 | c4 D4 | %14
 B,4 C4 | A,4 B,4 | E,4 A,8 | D12 | D4 ^D4 | E,4 E,4 | A,8 | x6 | A,4 |]:[M:4/4] z | A,8 | E,8- | %26
 E,4 A,4 | AB cA ^D2 EE, | GA _BG ^C2 DD | DE FD G,2 C2 | x4 G,3 F, | E,4 E,2 F,2 | D4 G,4 | %33
 B,4 C4 | E,4 F,2 G,2 | A,2 G,2 F,2 E,2 | F,2 E,F, G,4 | A,2 G,2 F,2 E,2 | F,2 E,F, [G,G]4 | C8 | %40
 C6 z :: z | C2 z2 z4 | [G,D]8 | [CG]4 z4 | [Gd]4 z4 | c3 c d3 e | f3 d e3 ^f | g3 e ^f3 ^g | %49
 a2 z d c3 B | A3 G ^F3 E | B,8 | B,8 | B,8 | B,2 C2 B,2 A,2 | G,2 F2 E2 D2 | A,8 | A,8 | A,8 | %59
 A,4 _B,2 G,2 | A,2 _B,2 G,2 A,2 | D4 ^C2 ^D2 | E2 E,2 !courtesy!=C2 B,2 | ^G,2 A,2 [DF]4 | E,8 | %65
 E,8 | E,8 | A,2 D2 E,2 F,2 | E2 E,2 A,4 | ^D2 EE, GA _BG | ^C2 DD- D4 | D2 CD E2 E,2 | [A,E]8 | %73
 A,6 z ::[M:3/4] x3 | A,6 | A,6 | C4 D2 | E,6 | ^C2 A,4 | D6 | B,2 G,4 | C6 | E6 | F6 | D6 | %86
 G4 E2 | F6 | B,4 D2 | E,4 G,2 | A,4 C2 | D4 F,2 | G,4 B,2 | C4 E,2 | F,6 | G,6 | G,6 | G,6 | G,6 | %99
 G,6 | E6 | F6 | G,6 | C2 G,4 | z2 C4- | C3 :: z z2 | C6 | C6 | E,4 F,2 | G,3 z z2 | D6 | D6 | %113
 F4 G,2 | A,6 | D6 | G6 | C6 | F6 | _B,6 | E,6 | A,6 | D6 | G,6 | C4 A,2 | G,4 G,2 | F,4 F,2 | %127
 E,4 F,2 | D2 E,4 | A,6 | A,6 | B,6 | ^D6 | E,6 | E,6 | A,6 | ^C2 A,4 | D6 | D6 | E,6 | A,6 | D6 | %142
 E,6 | E,6 | E,6 | E,6 | D6 | E,6 | A,2 E,4 | z2 A,4 | A3 ::[M:2/2] z2 | A,4 ^G,4 | A,6 ^G2 | %154
 A4 F4 | E4 E,4 | A,8 | D8 | G4 B,4 | C6 E2 | F4 E4 | F8 | E4 D4 | E8 | D4 C4 | B,8 | C4 F,2 G,2 | %167
 A,4 B,4 | C4 F,2 G,2 | A,4 B,4 | C2 E,2 F,2 G,2 | C6 :: z2 | C4 B,4 | C6 B,2 | C4 D4 | E6 E2 | %177
 F8 | G,8 | E2 DC B,4 | C4 A,4 | A,4 G,4 | G4 F4 | !1![Gd]4 E4 | [Fc]4 D4 | [E_B]4 ^C4 | %186
 D2 F,2 A,2 ^C2 | D2 F2 A2 ^C2 | [DA]4 G,2 A,2 | D6 !courtesy!=C2 | B,8 | B,8 | C4 B,4 | A,8 | %194
 B,4 A,4 | ^G,4 E,4 | A,6 !courtesy!=G,2 | F,6 ^C2 | D6 !courtesy!=C2 | B,6 B,2 | C4 ^G,4 | %201
 A,2 !2!F2 D2 E2 | z2 A,4 ::[M:3/4] A,2 A2 A2 | ^G4 =G2 | ^F4 =F2 | E2 E,2 D2 | ^C2 z2 z2 | D6 | %209
 B,6 | C3 z z2 | E2 z2 z2 | F6 | F,6 | [F,B,]4 E,2 | F,2 G,2 G2 |1 E2 C z z2 :|2 E2 C z z2 |: C6 | %219
 B,6 | A,4 D2 | [Gd]6 | A,4 A2 | G6 | ^F2 B,4 | E6 | B,6 | C4 B,2 | A,4 G,2 | B,6 | E4 D2 | %231
 !1!^C4 A,2 | [DA]4 z2 | D6 | E,6 | c4 A,2 | D6 | D6 | E,6 | A,2 D2 E2 | F6 | E4 F2 | [EA]4 E,2 | %243
 [A,E]6 ::[M:3/4] A,4 B,2 | A,6 | A,4 F2 | E6 | ^C4 B,2 | A,6 | D6 | B,4 A,2 | G,6 | C6 | E6 | F6 | %256
 E6 | F6 | G6 | A4 G2 | F4 E2 | D6 | G,4 B,2 | A,4 [DA]2 | G,4 C2 | F,4 E,2 | F,2 G,4 | z2 C4 :: %268
 C6 | B,6 | A,6 | G,6 | D6 | !3!E6 | F4- FG | A2 A,4 | E6 | D6 | C6 | B,6 | A,6 | G6 | ^F2 B,4 | %283
 E6 | D6 | C6 | B,6 | E2 A,2 B,2 | E,6 | z2 E2 D2 | ^C4 B,2 | A,6 | D6 | B,4 A,2 | G,6 | C6 | %296
 A2 G2 F2 | E,6 | E,6 | E,6 | E,6 | E4 F2 | D4 E2 | z2 A,4 ::[M:3/4] C6 | F4 E2 | [Fc]4 [Ec]2 | %307
 [Fc]4 z2 | G,4 A,2 | A4 G2 | F4 E2 | D4 C2 | F4 E2 | [DB]4 C2 | [B,G]4 !2![A,^F]2 | G,6 :: G,6 | %317
 G,4 F,2 | E,2 A,4 | D6 | G,6 | G,4 z2 | [G^c]6 | F6 | E6 | D6 | G,6 | G,4 F,2 | E,2 A,4 | D6 | %330
 D4 B,2 | C4 B,2 | A,4 F,2 | G,6 | [Ec]4 z2 | [Fc]4 [Ec]2 | [Fc]4 G,2 | C6 :| %338
V:3
 x8 | x8 | x10 | x8 | x8 | x7 | x12 | x12 | x16 | x8 | x12 | x8 | x8 | x8 | x8 | x8 | x12 | x12 | %18
 x8 | x8 | x8 | x6 | x4 |]:[M:4/4] x | x8 | x8 | [ce]2 [^Ge]2 e2 z2 | x4 B4 | x4 A2 A2 | %29
 x4 B2 d x | x4 G3/2 x5/2 | G z GC G2 z F | F2 ^F2 A{A}G/F/ G2 | d2 d z d{d}c/B/ c2 | %34
 g z z2 c2 B2 | A2 B z A2 G2 | D{A}G GA B3 x | x8 | x8 | x8 | x7 :: x | x8 | x8 | x8 | x8 | x8 | %47
 x8 | x8 | x8 | x8 | x8 | x8 | x8 | e^d e2 =d2 c2 | B2 A2 G2 F2 | d x7 | x8 | x8 | d2 x6 | x8 | %61
 x8 | x8 | x8 | x8 | x8 | x8 | e2 !courtesy!=f2 x4 | x8 | B4 x4 | A2 A2 x4 | x8 | x8 | x7 :: %74
[M:3/4] x3 | x6 | x6 | d x5 | x6 | x6 | x6 | x6 | x6 | x6 | x6 | x6 | x6 | x6 | x6 | x6 | x6 | x6 | %92
 x6 | x6 | x6 | x6 | x6 | x6 | d x5 | x6 | x6 | x6 | x6 | x6 | x6 | x3 :: x3 | x6 | x6 | x6 | x6 | %111
 x6 | x6 | x6 | x6 | x6 | x6 | x6 | x6 | x6 | x6 | x6 | x6 | x6 | x6 | _B4 B2 | A4 A2 | ^G4 A2 | %128
 x6 | x6 | x6 | x6 | x6 | x6 | x6 | x6 | x6 | x6 | x6 | x6 | x6 | x6 | x6 | x6 | x6 | x6 | x6 | %147
 x6 | x6 | x6 | x3 ::[M:2/2] x2 | x8 | e4 z2 x2 | x8 | x8 | x8 | x8 | x8 | x8 | x8 | x8 | x8 | x8 | %164
 x8 | x8 | x8 | x8 | x8 | x8 | x8 | z2 E2 E2 :: x2 | x8 | x8 | x8 | x8 | x8 | x8 | x4 G4- | G4 c4 | %181
 _B4 B4 | x8 | x8 | x8 | x8 | x8 | x8 | x4 d2 ^c2 | x8 | x8 | x8 | x8 | x8 | x8 | x8 | x8 | x8 | %198
 x8 | x8 | x8 | x4 a x3 | x6 ::[M:3/4] [ce]2 e4 | e2 e4 | !3!e2 !1!d4 | z2 e3 e | e2 A2 ^c2 | x6 | %209
 z2 G2 B2 | x6 | g2 c2 e2 | x6 | x6 | x4 G2 | A2 B4 |1 x6 :|2 x6 |: f x5 | dc B4 | e2 x4 | x6 | %222
 e2 ^f3 x | x6 | x2 ^d4 | x6 | [Be]4 x2 | x6 | e2 z ^d e2 | e4 z2 | B4- Be | !2!e2 Pf3 e | x6 | %233
 !1!f6 | x6 | x6 | x6 | f6 | x4 ^G2 | e2 !3!f2 z2 | x6 | x6 | x6 | x6 ::[M:3/4] x6 | x6 | x6 | x6 | %248
 x6 | x6 | x6 | x6 | x6 | x6 | x6 | x6 | x6 | x6 | x6 | x6 | x6 | x6 | x6 | c4 x2 | B3 z d x | %265
 A4 G2 | x6 | x6 :: x6 | x6 | x6 | x6 | x6 | x6 | x6 | x6 | x6 | x6 | x6 | x6 | x2 ^f3 z | x6 | %282
 x6 | z2 e2 c2 | c4 B2 | B4 A2 | x6 | x6 | B4 z2 | e6 | x6 | x6 | x6 | x6 | x6 | x6 | x6 | x6 | %298
 x6 | x6 | x6 | x6 | a x5 | x6 ::[M:3/4] x6 | x6 | x6 | x6 | G4 x2 | x6 | x6 | B4 x2 | x6 | %313
 x4 d x | x6 | x6 :: d6 | A4 x2 | f x ^c4 | x6 | d4 z2 | A4 x2 | x6 | x6 | x6 | x6 | _B4 z2 | %327
 A2 x4 | x2 ^c4 | d2 A2 d2 | x6 | x6 | x6 | x6 | x6 | x6 | x6 | z2 E2 E2 :| %338
V:4
 x8 | x8 | x10 | x8 | x8 | x7 | x12 | x12 | x16 | x8 | x12 | x8 | x8 | x8 | x8 | x8 | x12 | x12 | %18
 x8 | x8 | x8 | x6 | x4 |]:[M:4/4] x | x8 | x8 | x8 | x8 | x8 | x8 | x8 | x8 | x8 | x8 | x8 | x8 | %36
 x8 | x8 | x8 | x8 | x7 :: x | x8 | x8 | x8 | x8 | x8 | x8 | x8 | x8 | x8 | x8 | x8 | x8 | x8 | %55
 x8 | x8 | x8 | x8 | x8 | x8 | x8 | x8 | x8 | x8 | x8 | x8 | x8 | x8 | x8 | x8 | x8 | x8 | x7 :: %74
[M:3/4] x3 | x6 | x6 | x6 | x6 | x6 | x6 | x6 | x6 | x6 | x6 | x6 | x6 | x6 | x6 | x6 | x6 | x6 | %92
 x6 | x6 | x6 | x6 | x6 | x6 | x6 | x6 | x6 | x6 | x6 | x6 | x6 | x3 :: x3 | x6 | x6 | x6 | x6 | %111
 x6 | x6 | x6 | x6 | x6 | x6 | x6 | x6 | x6 | x6 | x6 | x6 | x6 | x6 | x6 | x6 | x6 | x6 | x6 | %130
 x6 | x6 | x6 | x6 | x6 | x6 | x6 | x6 | x6 | x6 | x6 | x6 | x6 | x6 | x6 | x6 | x6 | x6 | x6 | %149
 x6 | x3 ::[M:2/2] x2 | x8 | x8 | x8 | x8 | x8 | x8 | x8 | x8 | x8 | x8 | x8 | x8 | x8 | x8 | x8 | %167
 x8 | x8 | x8 | x8 | x6 :: x2 | x8 | x8 | x8 | x8 | x8 | x8 | x8 | x8 | x8 | x8 | x8 | x8 | x8 | %186
 x8 | x8 | x8 | x8 | x8 | x8 | x8 | x8 | x8 | x8 | x8 | x8 | x8 | x8 | x8 | x8 | x6 ::[M:3/4] x6 | %204
 x6 | x6 | x6 | x6 | x6 | x6 | x6 | x6 | x6 | x6 | x6 | x6 |1 x6 :|2 x6 |: x6 | x6 | x6 | x6 | x6 | %223
 x6 | x6 | x6 | x6 | x6 | x6 | x6 | x6 | x6 | x6 | x6 | x6 | x6 | x6 | x6 | x6 | !4!b x5 | x6 | %241
 x6 | x6 | x6 ::[M:3/4] x6 | x6 | x6 | x6 | x6 | x6 | x6 | x6 | x6 | x6 | x6 | x6 | x6 | x6 | x6 | %259
 x6 | x6 | x6 | x6 | x6 | x6 | x6 | x6 | x6 :: x6 | x6 | x6 | x6 | x6 | x6 | x6 | x6 | x6 | x6 | %278
 x6 | x6 | x6 | x6 | x6 | x6 | x6 | x6 | x6 | x6 | x6 | x6 | x6 | x6 | x6 | x6 | x6 | x6 | x6 | %297
 x6 | x6 | x6 | x6 | x6 | x6 | x6 ::[M:3/4] x6 | x6 | x6 | x6 | x6 | x6 | x6 | x6 | x6 | x6 | x6 | %315
 x6 :: x6 | x6 | x6 | x6 | x6 | x6 | x6 | x6 | x6 | x6 | x6 | x6 | x6 | x6 | x6 | x6 | x6 | x6 | %334
 x6 | x6 | x6 | x6 :| %338

